!!!OTL: 43a. Edelmann und Schaefer.
!!!ARE: Europa, Mitteleuropa, Deutschland, Zerbst
!!!SCT: E0043
!!!TXL: @@DE
!!!YEM: Copyright 1995, estate of Helmut Schaffrath.
**kern	**text
*ICvox	*
*M4/4	*
*met(c|)	*
*clefG2	*
*k[]	*
*C:	*
!LO:TX:a:t=Aus der Gegend von Ʒerbſt. Liederhort Nr. 51.	!
{4g	Es
=1	=1
4cc	trieb
4cc	ein
8ddL	Schä-
8ccJ	.
8b	-fer
8a	die
=2	=2
8aL	Läm-
8gJ	.
8g	-me-
8g	-lein
4.g}	aus,
{8cc	er
=3	=3
8gL	trieb
8fJ	.
8e	ſie
8f	wol
8gL	vor
8fJ	.
8eL	des
8dJ	.
=4	=4
4e	E-
8c	-del-
8c	-manns
4c}	Haus
{8e	[lat
8g	lat
=5	=5
8gL	lei,
8fJ	.
8d	lat
8f	lat
4e}	lum]
{8e	[lat
8g	lat
=6	=6
8gL	lei,
8fJ	.
8d	lat
8f	lat
4e}	lum]
{4g	er
=7	=7
4cc	trieb
8cc	ſie
8cc	wol
(8eeq	.
4dd)	vor
4dd	dem
=8	=8
8.b	E-
16b	-del-
8b	-mann
8b	ſein
4cc}	Haus.
==	==
!!!AGN: erzaehlendes Volks - Lied, Ritter - Sage, Ballade ?
!!!ONB: ESAC (Essen Associative Code) Database: ERK1
!!!AMT: simple quadruple
!!!AIN: vox
!!!EED: Helmut Schaffrath
!!!EEV: 1.0
!!!GTL: Ritter- und Raeubersagen
!!!URL-scan: https://rosdok.uni-rostock.de/mcrviewer/recordIdentifier/rosdok_ppn745146120/iview2/phys_0215.iview2?x=-250.1417780126858&y=1645.0917520779185&scale=0.5392104374602399&rotation=0&layout=singlePageLayout&logicalDiv=log_0009
!!!ENC: Anna Maria Matuszewska
!!!EEV: 2024/11/25
*-	*-
